packages/core/src/svgs/litt.svg

<svg width="24" height="24" viewBox="0 0 24 24" fill="none" xmlns="http://www.w3.org/2000/svg">
<g clip-path="url(#clip0_31_13256)">
<path d="M0 0H24V24H0V0Z" fill="url(#paint0_linear_31_13256)"/>
<path d="M10.8301 6.85727H13.2086C13.5944 6.81441 14.3144 6.41155 14.1386 5.11727C14.1344 5.08298 14.0829 5.06584 14.0529 5.09584C13.785 5.37525 13.4607 5.5944 13.1015 5.73869C13.1444 5.67441 13.2301 5.45584 13.2301 5.08298C13.2301 4.71441 12.9001 4.26869 12.7286 4.09298C12.6096 3.95126 12.5255 3.7836 12.4831 3.60347C12.4407 3.42334 12.4411 3.23577 12.4844 3.05584C12.4879 3.04726 12.4886 3.03776 12.4863 3.02877C12.484 3.01977 12.4788 3.01177 12.4715 3.00597C12.4643 3.00017 12.4553 2.99688 12.4461 2.9966C12.4368 2.99632 12.4277 2.99906 12.4201 3.00441C11.9669 3.24377 11.5848 3.59841 11.3124 4.03258C11.04 4.46674 10.887 4.96506 10.8686 5.47727C10.8344 5.45155 10.5601 5.17727 10.4786 4.81298C10.4701 4.77012 10.4101 4.75727 10.3886 4.79584C10.0158 5.39584 9.66007 6.50155 10.8301 6.85727ZM10.1272 7.52155V8.14298C10.1272 8.18584 10.1829 8.27155 10.3844 8.32727C10.5858 8.37869 10.7058 8.64441 10.7144 8.76869V11.4687C10.7144 11.4987 10.6886 11.5501 10.6458 11.6016C9.80198 11.8654 9.0636 12.39 8.53685 13.1001C8.0101 13.8101 7.72213 14.6689 7.71436 15.553C7.71436 17.8501 9.63436 19.7144 12.0001 19.7144C14.3658 19.7144 16.2858 17.8501 16.2858 15.553C16.2783 14.6695 15.9909 13.8111 15.465 13.1011C14.9391 12.3911 14.2016 11.8661 13.3586 11.6016C13.3158 11.5501 13.2858 11.4987 13.2858 11.4644V8.76869C13.2944 8.64441 13.4229 8.38298 13.6201 8.32727C13.8215 8.27155 13.8772 8.18155 13.8772 8.14298V7.52155C13.8772 7.39298 13.7744 7.28584 13.6458 7.28584H10.3586C10.2301 7.28584 10.1272 7.38869 10.1272 7.52155ZM8.45578 15.043C8.54673 14.604 8.79045 14.2114 9.14358 13.9352C9.49671 13.659 9.93636 13.517 10.3844 13.5344C11.2886 13.5344 11.6444 13.963 12.0001 14.4044C12.3686 14.8587 12.7458 15.3173 13.7272 15.3173C14.053 15.3124 14.3742 15.2394 14.6701 15.103C15.0001 14.9101 15.4629 14.9744 15.4972 15.4587V15.553C15.4972 17.4516 13.9115 18.9901 11.9615 18.9901C11.4614 18.9962 10.9659 18.8947 10.5085 18.6926C10.0511 18.4904 9.64249 18.1922 9.31042 17.8183C8.97834 17.4443 8.73055 17.0034 8.58383 16.5253C8.43712 16.0472 8.39491 15.5431 8.46007 15.0473L8.45578 15.043ZM10.2858 16.2858C10.5131 16.2858 10.7311 16.1955 10.8919 16.0348C11.0526 15.874 11.1429 15.656 11.1429 15.4287C11.1429 15.2014 11.0526 14.9833 10.8919 14.8226C10.7311 14.6619 10.5131 14.5716 10.2858 14.5716C10.0585 14.5716 9.84044 14.6619 9.67969 14.8226C9.51895 14.9833 9.42864 15.2014 9.42864 15.4287C9.42864 15.656 9.51895 15.874 9.67969 16.0348C9.84044 16.1955 10.0585 16.2858 10.2858 16.2858ZM12.8572 16.7144C12.9709 16.7144 13.0799 16.6693 13.1603 16.5889C13.2406 16.5085 13.2858 16.3995 13.2858 16.2858C13.2858 16.1722 13.2406 16.0632 13.1603 15.9828C13.0799 15.9024 12.9709 15.8573 12.8572 15.8573C12.7435 15.8573 12.6345 15.9024 12.5542 15.9828C12.4738 16.0632 12.4286 16.1722 12.4286 16.2858C12.4286 16.3995 12.4738 16.5085 12.5542 16.5889C12.6345 16.6693 12.7435 16.7144 12.8572 16.7144Z" fill="white"/>
</g>
<defs>
<linearGradient id="paint0_linear_31_13256" x1="1.77857" y1="2.77714" x2="17.9829" y2="24" gradientUnits="userSpaceOnUse">
<stop stop-color="#33AAC2"/>
<stop offset="0.51" stop-color="#47B6CA"/>
<stop offset="1" stop-color="#92E5EB"/>
</linearGradient>
<clipPath id="clip0_31_13256">
<rect width="24" height="24" fill="white"/>
</clipPath>
</defs>
</svg>

<svg xmlns="http://www.w3.org/2000/svg" width="24" height="24" fill="none" viewBox="0 0 24 24"><g clip-path="url(#a)"><path fill="url(#b)" d="M0 0h24v24H0z"/><path fill="#fff" d="M10.83 6.857h2.379c.385-.043 1.105-.445.93-1.74-.005-.034-.056-.051-.086-.021-.268.28-.592.498-.952.643.043-.065.13-.283.13-.656 0-.369-.33-.814-.502-.99a1.18 1.18 0 0 1-.245-1.037.04.04 0 0 0-.012-.05.04.04 0 0 0-.052-.002 2.92 2.92 0 0 0-1.551 2.473 1.4 1.4 0 0 1-.39-.664c-.009-.043-.069-.056-.09-.017-.373.6-.729 1.706.441 2.061m-.703.665v.621c0 .043.056.129.257.184.202.052.322.317.33.442v2.7c0 .03-.025.081-.068.133a4.18 4.18 0 0 0-2.932 3.951c0 2.297 1.92 4.161 4.286 4.161s4.286-1.864 4.286-4.161a4.18 4.18 0 0 0-2.927-3.951c-.043-.052-.073-.103-.073-.138V8.77c.008-.125.137-.386.334-.442.202-.055.257-.145.257-.184v-.621a.234.234 0 0 0-.231-.236h-3.287a.23.23 0 0 0-.232.236m-1.671 7.521a1.894 1.894 0 0 1 1.928-1.509c.905 0 1.26.429 1.616.87.369.455.746.913 1.727.913.326-.005.647-.078.943-.214.33-.193.793-.129.827.356v.094c0 1.899-1.585 3.437-3.536 3.437a3.49 3.49 0 0 1-3.5-3.943zm1.83 1.243a.857.857 0 1 0 0-1.715.857.857 0 0 0 0 1.715m2.571.428a.429.429 0 1 0 0-.857.429.429 0 0 0 0 .857"/></g><defs><linearGradient id="b" x1="1.779" x2="17.983" y1="2.777" y2="24" gradientUnits="userSpaceOnUse"><stop stop-color="#33AAC2"/><stop offset=".51" stop-color="#47B6CA"/><stop offset="1" stop-color="#92E5EB"/></linearGradient><clipPath id="a"><path fill="#fff" d="M0 0h24v24H0z"/></clipPath></defs></svg>
